assets/Magnet/Flat/magnet_flat.svg

<svg xmlns="http://www.w3.org/2000/svg" width="32" height="32" fill="none"><path fill="#D3D3D3" d="M11 23v6.06c0 .52-.42.94-.94.94H3.94c-.52 0-.94-.42-.94-.94V23l4.028-2.152L11 23ZM29 23v6.06c0 .52-.42.94-.94.94h-6.12c-.52 0-.94-.42-.94-.94V23l3.99-2.152L29 23Z"/><path fill="#F8312F" d="M11 23v-7.94c0-2.75 2.2-5.04 4.95-5.06 2.78-.03 5.05 2.23 5.05 5v8h8v-8c0-7.18-5.82-13-13-13S3 7.82 3 15v8h8Z"/></svg>

<svg width="32" height="32" viewBox="0 0 32 32" fill="none" xmlns="http://www.w3.org/2000/svg">
<path d="M11 23V29.06C11 29.58 10.58 30 10.06 30H3.94C3.42 30 3 29.58 3 29.06V23L7.02759 20.8479L11 23Z" fill="#D3D3D3"/>
<path d="M29 23V29.06C29 29.58 28.58 30 28.06 30H21.94C21.42 30 21 29.58 21 29.06V23L24.9896 20.8479L29 23Z" fill="#D3D3D3"/>
<path d="M11 23V15.06C11 12.31 13.2 10.02 15.95 10C18.73 9.97 21 12.23 21 15V23H29V15C29 7.82 23.18 2 16 2C8.82 2 3 7.82 3 15V23H11Z" fill="#F8312F"/>
</svg>
